X:1
T:Title
%%score { ( 1 3 ) | ( 2 4 ) }
L:1/8
Q:1/4=106
M:4/4
K:D
V:1 treble nm="Grand Piano"
V:3 treble 
V:2 bass 
V:4 bass 
V:1
 F2 FF FEDF | [DFA]4- [DFA][F,D][A,DF][DFA] | z4 z2 B2 | [FA]4 z [FA][FA][GB] | G3 A F3 [EG] | %5
w: R.~Frank~Lehman * * * * * *|||||
 [CE]4- [CE][CE][EA]B | c2 z2 z4 | [CA]6 z2 | F2 FF FEDF | [DFA]4- [DFA][F,D][A,DF][DFA] | %10
w: |||||
 z4 z2 B2 | [FA]4 z [Fd][Fd][Fd] | [Fd]3 F G2 A2 | B2 c2 d2 [Ge]2 | d3 d dcBc | %15
w: |||||
[M:5/8] [Fd]- [Fd]3 z |[M:3/8] AAA |[M:4/4] e3 c B2 A2 | d2- [Gd-]2 [Fd]FFF | B3 F D2 E2 | %20
w: |||||
 z2 D2 CAAA | [Fd]3 F G2 A2 | B2 c2 d2 [Ge]2 | d3 d dcBc |[M:13/8] [Fd]- [Fd]3 z z z z z z z z2 |] %25
w: |||||
V:2
 [D,A,D]2 [D,A,D][D,A,D] [D,A,D][D,G,D][D,F,][D,A,D] | D,4- D,D,D,D, | G,2 G,2 [G,A,]2 .[G,B,G]2 | %3
 [D,D]4 z [D,D][D,D][D,D] | [A,E]3 [A,F][K:bass] [D,A,D]3 [D,A,] | %5
 [A,,A,]4- [A,,A,][A,,A,][C,A,][E,^G,E] | .[A,E]2 z F [E,A,E]2 [E,^G,D]2 | [A,,A,]6 z2 | %8
 [D,A,D]2 [D,A,D][D,A,D] [D,A,D][D,G,D][D,F,][D,A,D] | D,4- D,D,D,D, | G,2 G,2 [G,A,]2 .[G,B,G]2 | %11
 [D,D]4 z [D,A,][D,A,][D,A,] | [D,A,]3 [D,=CD] [D,B,D]2 [D,F,D]2 | %13
 [G,D]2 [F,^A,F]2 [B,F]2 [E,B,]2 | [A,F]3 [A,F][K:bass] [A,,A,]2 [A,,A,]2 | %15
[M:5/8] [D,A,]- [D,A,]3 z |[M:3/8] A,A,A, |[M:4/4][K:treble] [A,CG]3 [A,EG] [A,DG]2 [A,CG]2 | %18
 z2 B,2 A,F,F,F, | B,3 F, D,2 [G,B,]2 | [^A,C]2 B,2 A,=A,A,A, | [D,A,]3 [D,=CD] [D,B,D]2 [D,F,D]2 | %22
 [G,D]2 [F,^A,F]2 [B,F]2 [E,B,]2 | [A,F]3 [A,F][K:bass] [A,,A,]2 [A,,A,]2 | %24
[M:13/8] [D,A,]- [D,A,]3 z z z z z z z z2 |] %25
V:3
 x8 | x8 | [DGB]2 [Bd]2 [Ac]2 z C | x8 | x8 | x8 | z A[^Ge]d c2 B2 | x8 | x8 | x8 | %10
 [DGB]2 [Bd]2 [Ac]2 z C | x8 | x8 | x8 | z4 G2 G2 |[M:5/8] x5 |[M:3/8] x3 |[M:4/4] x8 | %18
 [DF]2 z2 z4 | x8 | F6 z2 | x8 | x8 | z4 G2 G2 |[M:13/8] x13 |] %25
V:4
 x8 | x8 | x8 | x8 | x4[K:bass] x4 | x8 | z2 [D,A,]2 z4 | x8 | x8 | x8 | x8 | x8 | x8 | x8 | %14
 x4[K:bass] x4 |[M:5/8] x5 |[M:3/8] x3 |[M:4/4][K:treble] x8 | D,6 z2 | x8 | F,6 z2 | x8 | x8 | %23
 x4[K:bass] x4 |[M:13/8] x13 |] %25

